modules/zondicons/icons/notifications-outline.svg

<?xml version="1.0" encoding="UTF-8" standalone="no"?>
<svg width="20px" height="20px" viewBox="0 0 20 20" version="1.1" xmlns="http://www.w3.org/2000/svg" xmlns:xlink="http://www.w3.org/1999/xlink">
    <!-- Generator: Sketch 3.7.2 (28276) - http://www.bohemiancoding.com/sketch -->
    <title>notifications-outline</title>
    <desc>Created with Sketch.</desc>
    <defs></defs>
    <g id="Page-1" stroke="none" stroke-width="1" fill="none" fill-rule="evenodd">
        <g id="notifications-outline" fill="#000000">
            <path d="M14,8 C14,5.790861 12.209139,4 10,4 C7.790861,4 6,5.790861 6,8 L6,15 L14,15 L14,8 Z M8.02739671,2.33180314 C5.68271203,3.14769073 4,5.37733614 4,8 L4,14 L1,16 L1,17 L19,17 L19,16 L16,14 L16,8 C16,5.37733614 14.317288,3.14769073 11.9726033,2.33180314 C11.9906226,2.22388264 12,2.11303643 12,2 C12,0.8954305 11.1045695,0 10,0 C8.8954305,0 8,0.8954305 8,2 C8,2.11303643 8.0093774,2.22388264 8.02739671,2.33180314 L8.02739671,2.33180314 Z M12,18 C12,19.1045695 11.1045695,20 10,20 C8.8954305,20 8,19.1045695 8,18 L12,18 L12,18 Z" id="Combined-Shape"></path>
        </g>
    </g>
</svg>

<svg width="20" height="20" viewBox="0 0 20 20" xmlns="http://www.w3.org/2000/svg"><path d="M14 8a4 4 0 1 0-8 0v7h8V8zM8.027 2.332A6.003 6.003 0 0 0 4 8v6l-3 2v1h18v-1l-3-2V8a6.003 6.003 0 0 0-4.027-5.668 2 2 0 1 0-3.945 0zM12 18a2 2 0 1 1-4 0h4z" fill="#000" fill-rule="evenodd"/></svg>
